X:273
T:Joan's Placket. (p)1687.PLFD.273
M:6/4
L:1/4
Q:3/4=110
S:Playford, Dancing Master,7th Ed,1st Supp,1687.
O:England
H:1687.
Z:Chris Partington
K:G
A|B2BB>AG|A2AA>dc|B>AGAFD|G3-G2:|
|:d|e/f/gde2d|e/f/gde2d|e/f/gdedB|A3A>dc|
B2BB>AG|A2AA2d/c/|B>AGAFD|G3-G2:|
